img/svg/social/instagram.svg

<?xml version="1.0" encoding="iso-8859-1"?>
<!-- Generator: Adobe Illustrator 21.0.0, SVG Export Plug-In . SVG Version: 6.00 Build 0)  -->
<svg xmlns="http://www.w3.org/2000/svg" xmlns:xlink="http://www.w3.org/1999/xlink" version="1.1" id="Capa_1" x="0px" y="0px" viewBox="0 0 512 512" style="enable-background:new 0 0 512 512;" xml:space="preserve" width="512" height="512">
<g>
	<path d="M256,152c-57.9,0-105,47.1-105,105s47.1,105,105,105s105-47.1,105-105S313.9,152,256,152z M256,152   c-57.9,0-105,47.1-105,105s47.1,105,105,105s105-47.1,105-105S313.9,152,256,152z M437,0H75C33.6,0,0,33.6,0,75v362   c0,41.4,33.6,75,75,75h362c41.4,0,75-33.6,75-75V75C512,33.6,478.4,0,437,0z M256,392c-74.399,0-135-60.601-135-135   c0-74.401,60.601-135,135-135s135,60.599,135,135C391,331.399,330.399,392,256,392z M421,122c-16.5,0-30-13.5-30-30s13.5-30,30-30   s30,13.5,30,30S437.5,122,421,122z M256,152c-57.9,0-105,47.1-105,105s47.1,105,105,105s105-47.1,105-105S313.9,152,256,152z    M256,152c-57.9,0-105,47.1-105,105s47.1,105,105,105s105-47.1,105-105S313.9,152,256,152z M256,152c-57.9,0-105,47.1-105,105   s47.1,105,105,105s105-47.1,105-105S313.9,152,256,152z"/>
</g>















</svg>

<svg width="512" height="512" viewBox="0 0 512 512" fill="none" xmlns="http://www.w3.org/2000/svg">
<path d="M256 152C198.1 152 151 199.1 151 257C151 314.9 198.1 362 256 362C313.9 362 361 314.9 361 257C361 199.1 313.9 152 256 152ZM256 152C198.1 152 151 199.1 151 257C151 314.9 198.1 362 256 362C313.9 362 361 314.9 361 257C361 199.1 313.9 152 256 152ZM437 0H75C33.6 0 0 33.6 0 75V437C0 478.4 33.6 512 75 512H437C478.4 512 512 478.4 512 437V75C512 33.6 478.4 0 437 0ZM256 392C181.601 392 121 331.399 121 257C121 182.599 181.601 122 256 122C330.399 122 391 182.599 391 257C391 331.399 330.399 392 256 392ZM421 122C404.5 122 391 108.5 391 92C391 75.5 404.5 62 421 62C437.5 62 451 75.5 451 92C451 108.5 437.5 122 421 122ZM256 152C198.1 152 151 199.1 151 257C151 314.9 198.1 362 256 362C313.9 362 361 314.9 361 257C361 199.1 313.9 152 256 152ZM256 152C198.1 152 151 199.1 151 257C151 314.9 198.1 362 256 362C313.9 362 361 314.9 361 257C361 199.1 313.9 152 256 152ZM256 152C198.1 152 151 199.1 151 257C151 314.9 198.1 362 256 362C313.9 362 361 314.9 361 257C361 199.1 313.9 152 256 152Z" fill="white"/>
</svg>
